dataset/cherry-studio/icon.svg

<?xml version="1.0" encoding="UTF-8" standalone="no"?>
<svg
   viewBox="0 0 128 128"
   style="display:inline;enable-background:new"
   version="1.0"
   id="svg11300"
   height="128"
   width="128"
   xml:space="preserve"
   xmlns:xlink="http://www.w3.org/1999/xlink"
   xmlns="http://www.w3.org/2000/svg"
   xmlns:svg="http://www.w3.org/2000/svg"
   xmlns:rdf="http://www.w3.org/1999/02/22-rdf-syntax-ns#"
   xmlns:cc="http://creativecommons.org/ns#"
   xmlns:dc="http://purl.org/dc/elements/1.1/"><title
     id="title4162">Adwaita Icon Template</title><defs
     id="defs3"><linearGradient
       id="linearGradient6"><stop
         style="stop-color:#ffffff;stop-opacity:1;"
         offset="0"
         id="stop6" /><stop
         style="stop-color:#ff5f5f;stop-opacity:1;"
         offset="1"
         id="stop7" /></linearGradient><linearGradient
       id="linearGradient1"><stop
         style="stop-color:#ffffff;stop-opacity:1;"
         offset="0"
         id="stop1" /><stop
         style="stop-color:#ff5f5f;stop-opacity:1;"
         offset="1"
         id="stop2" /></linearGradient><linearGradient
       id="linearGradient974"><stop
         style="stop-color:#c70000;stop-opacity:1;"
         offset="0"
         id="stop962" /><stop
         id="stop964"
         offset="0.04166667"
         style="stop-color:#ff9494;stop-opacity:1;" /><stop
         style="stop-color:#c70000;stop-opacity:1;"
         offset="0.08333334"
         id="stop966" /><stop
         id="stop968"
         offset="0.91666669"
         style="stop-color:#c70000;stop-opacity:1;" /><stop
         style="stop-color:#ff9494;stop-opacity:1;"
         offset="0.95833331"
         id="stop970" /><stop
         style="stop-color:#c70000;stop-opacity:1;"
         offset="1"
         id="stop972" /></linearGradient><linearGradient
       y2="44"
       x2="464"
       y1="44"
       x1="48"
       gradientTransform="matrix(0.25,0,0,0.25,0,53)"
       gradientUnits="userSpaceOnUse"
       id="linearGradient1747"
       xlink:href="#linearGradient974" /><linearGradient
       xlink:href="#linearGradient1"
       id="linearGradient2"
       x1="46.808929"
       y1="74.409775"
       x2="87.400932"
       y2="57.563141"
       gradientUnits="userSpaceOnUse" /><linearGradient
       xlink:href="#linearGradient6"
       id="linearGradient7"
       x1="92.299805"
       y1="60.07679"
       x2="78.466637"
       y2="101.6694"
       gradientUnits="userSpaceOnUse" /></defs><metadata
     id="metadata4"><rdf:RDF><cc:Work
         rdf:about=""><dc:format>image/svg+xml</dc:format><dc:type
           rdf:resource="http://purl.org/dc/dcmitype/StillImage" /><dc:creator><cc:Agent><dc:title>GNOME Design Team</dc:title></cc:Agent></dc:creator><dc:source /><cc:license
           rdf:resource="http://creativecommons.org/licenses/by-sa/4.0/" /><dc:title>Adwaita Icon Template</dc:title><dc:subject><rdf:Bag /></dc:subject><dc:date /><dc:rights><cc:Agent><dc:title /></cc:Agent></dc:rights><dc:publisher><cc:Agent><dc:title /></cc:Agent></dc:publisher><dc:identifier /><dc:relation /><dc:language /><dc:coverage /><dc:description /><dc:contributor><cc:Agent><dc:title /></cc:Agent></dc:contributor></cc:Work><cc:License
         rdf:about="http://creativecommons.org/licenses/by-sa/4.0/"><cc:permits
           rdf:resource="http://creativecommons.org/ns#Reproduction" /><cc:permits
           rdf:resource="http://creativecommons.org/ns#Distribution" /><cc:requires
           rdf:resource="http://creativecommons.org/ns#Notice" /><cc:requires
           rdf:resource="http://creativecommons.org/ns#Attribution" /><cc:permits
           rdf:resource="http://creativecommons.org/ns#DerivativeWorks" /><cc:requires
           rdf:resource="http://creativecommons.org/ns#ShareAlike" /></cc:License></rdf:RDF></metadata><rect
     ry="8"
     rx="8"
     y="32"
     x="12"
     height="83.999992"
     width="104"
     id="rect1709"
     style="display:inline;fill:url(#linearGradient1747);fill-opacity:1;stroke:none;stroke-width:0.25;stroke-linecap:butt;stroke-linejoin:miter;stroke-miterlimit:4;stroke-dasharray:none;stroke-dashoffset:0;stroke-opacity:1;marker:none;marker-start:none;marker-mid:none;marker-end:none;paint-order:normal;enable-background:new" /><rect
     style="display:inline;fill:#ff5f5f;fill-opacity:1;stroke:none;stroke-width:0.25;stroke-linecap:butt;stroke-linejoin:miter;stroke-miterlimit:4;stroke-dasharray:none;stroke-dashoffset:0;stroke-opacity:1;marker:none;marker-start:none;marker-mid:none;marker-end:none;paint-order:normal;enable-background:new"
     id="rect1711"
     width="104"
     height="100"
     x="12"
     y="12"
     rx="8"
     ry="8" /><path
     class="cls-1"
     d="m 63.994652,97.62644 c -4.757002,0 -9.236067,-1.902801 -12.624763,-5.355637 -3.388696,-3.452835 -5.248738,-8.028109 -5.248738,-12.870631 0,-4.842521 1.913491,-9.492625 5.238048,-12.892011 2.480055,-2.522815 6.499455,-2.522815 8.97951,0 2.480055,2.522815 2.480055,6.627734 0,9.150549 -0.96209,0.98347 -1.517965,2.341086 -1.517965,3.730772 0,2.864892 2.373156,5.280807 5.184598,5.280807 2.811442,0 5.184598,-2.415915 5.184598,-5.280807 0,-1.01554 -0.245867,-2.469365 -1.411066,-3.666633 -3.345936,-3.410076 -5.259427,-8.124319 -5.259427,-12.924081 0,-4.799762 1.860042,-9.417795 5.248738,-12.870631 3.388696,-3.452835 7.867761,-5.355636 12.624763,-5.355636 4.757003,0 9.236068,1.902801 12.624764,5.355636 3.388696,3.452836 5.248737,8.02811 5.248737,12.870631 0,4.842522 -1.913491,9.492625 -5.238047,12.892011 -2.480055,2.522815 -6.499455,2.522815 -8.97951,0 -2.480056,-2.522815 -2.480056,-6.627733 0,-9.150548 0.96209,-0.98347 1.517964,-2.341087 1.517964,-3.730773 0,-2.864891 -2.373156,-5.280807 -5.184598,-5.280807 -2.811442,0 -5.184598,2.415916 -5.184598,5.280807 0,1.400376 0.566565,2.779372 1.550035,3.773532 3.313867,3.378007 5.131148,7.931901 5.131148,12.817182 0,4.885281 -1.860041,9.417796 -5.248737,12.870631 -3.388696,3.452836 -7.867761,5.355637 -12.624764,5.355637 z"
     id="path2"
     style="fill:#ffffff;stroke-width:1.06899;fill-opacity:1" /><path
     class="cls-2"
     d="M 63.994652,46.699789 53.604076,36.950607 c -1.603484,-1.496585 -1.678313,-4.00871 -0.181728,-5.612194 1.496585,-1.592794 4.00871,-1.678313 5.612194,-0.181728 l 4.158368,3.901811 5.911511,-7.301197 c 1.378996,-1.699693 3.880431,-1.96694 5.580124,-0.587944 1.699693,1.378996 1.966941,3.880431 0.587944,5.580124 l -11.288527,13.95031 z"
     id="path3"
     style="fill:#ffffff;stroke-width:1.06899" /><path
     class="cls-1"
     d="m 47.607046,81.035726 c -4.757002,0 -9.236067,-1.902801 -12.624763,-5.355637 -3.388696,-3.452835 -5.248738,-8.028109 -5.248738,-12.870631 0,-4.842521 1.860042,-9.417796 5.248738,-12.870631 3.388696,-3.452835 7.867761,-5.355636 12.624763,-5.355636 4.757003,0 9.310897,1.94556 12.635454,5.334256 2.480055,2.522815 2.480055,6.627734 0,9.150549 -2.480055,2.522814 -6.499455,2.522814 -8.97951,0 -0.962091,-0.983471 -2.298327,-1.550035 -3.666633,-1.550035 -2.811442,0 -5.184599,2.415916 -5.184599,5.280807 0,2.864892 2.373157,5.280807 5.184599,5.280807 1.368306,0 2.693853,-0.566564 3.666633,-1.550034 2.480055,-2.522815 6.499455,-2.522815 8.97951,0 2.480055,2.522815 2.480055,6.627734 0,9.150548 -3.324557,3.388696 -7.931901,5.334257 -12.635454,5.334257 z"
     id="path1"
     style="fill:#ffffff;stroke-width:1.06899;fill-opacity:1" /><path
     id="path4"
     style="fill:url(#linearGradient2);stroke-width:1.06899"
     class="cls-1"
     d="M 46.125 80.974609 C 46.615375 81.01581 47.110041 81.035156 47.607422 81.035156 L 47.607422 81.013672 C 52.310975 81.013672 56.917631 79.068383 60.242188 75.679688 C 62.722242 73.156874 62.722243 69.052112 60.242188 66.529297 C 57.762132 64.006482 53.743727 64.006482 51.263672 66.529297 C 50.290892 67.512767 48.964009 68.080078 47.595703 68.080078 C 46.530641 68.080078 45.529382 67.731025 44.695312 67.144531 L 46.125 80.974609 z " /><path
     id="path5"
     style="fill:url(#linearGradient7);stroke-width:1.06899;fill-opacity:1"
     class="cls-1"
     d="M 98.210938 61.365234 L 82.189453 57.873047 C 84.140968 58.637669 85.566406 60.587258 85.566406 62.808594 C 85.566406 64.19828 85.010918 65.557546 84.048828 66.541016 C 81.568772 69.063831 81.568772 73.168591 84.048828 75.691406 C 86.528883 78.214221 90.549242 78.214221 93.029297 75.691406 C 96.353853 72.29202 98.265625 67.64135 98.265625 62.798828 C 98.265625 62.317923 98.247301 61.840031 98.210938 61.365234 z " /></svg>

<svg xmlns="http://www.w3.org/2000/svg" xmlns:xlink="http://www.w3.org/1999/xlink" xml:space="preserve" width="128" height="128" style="display:inline" viewBox="0 0 128 128"><title>Adwaita Icon Template</title><defs><linearGradient id="c"><stop offset="0" style="stop-color:#fff;stop-opacity:1"/><stop offset="1" style="stop-color:#ff5f5f;stop-opacity:1"/></linearGradient><linearGradient id="b"><stop offset="0" style="stop-color:#fff;stop-opacity:1"/><stop offset="1" style="stop-color:#ff5f5f;stop-opacity:1"/></linearGradient><linearGradient id="a"><stop offset="0" style="stop-color:#c70000;stop-opacity:1"/><stop offset=".042" style="stop-color:#ff9494;stop-opacity:1"/><stop offset=".083" style="stop-color:#c70000;stop-opacity:1"/><stop offset=".917" style="stop-color:#c70000;stop-opacity:1"/><stop offset=".958" style="stop-color:#ff9494;stop-opacity:1"/><stop offset="1" style="stop-color:#c70000;stop-opacity:1"/></linearGradient><linearGradient xlink:href="#a" id="d" x1="48" x2="464" y1="44" y2="44" gradientTransform="matrix(.25 0 0 .25 0 53)" gradientUnits="userSpaceOnUse"/><linearGradient xlink:href="#b" id="e" x1="46.809" x2="87.401" y1="74.41" y2="57.563" gradientUnits="userSpaceOnUse"/><linearGradient xlink:href="#c" id="f" x1="92.3" x2="78.467" y1="60.077" y2="101.669" gradientUnits="userSpaceOnUse"/></defs><rect width="104" height="84" x="12" y="32" rx="8" ry="8" style="display:inline;fill:url(#d);fill-opacity:1;stroke:none;stroke-width:.25;stroke-linecap:butt;stroke-linejoin:miter;stroke-miterlimit:4;stroke-dasharray:none;stroke-dashoffset:0;stroke-opacity:1;marker:none;marker-start:none;marker-mid:none;marker-end:none;paint-order:normal"/><rect width="104" height="100" x="12" y="12" rx="8" ry="8" style="display:inline;fill:#ff5f5f;fill-opacity:1;stroke:none;stroke-width:.25;stroke-linecap:butt;stroke-linejoin:miter;stroke-miterlimit:4;stroke-dasharray:none;stroke-dashoffset:0;stroke-opacity:1;marker:none;marker-start:none;marker-mid:none;marker-end:none;paint-order:normal"/><path d="M63.995 97.626c-4.757 0-9.236-1.902-12.625-5.355S46.12 84.243 46.12 79.4c0-4.843 1.914-9.493 5.238-12.893a6.273 6.273 0 0 1 8.98 0c2.48 2.523 2.48 6.628 0 9.15a5.37 5.37 0 0 0-1.518 3.731c0 2.865 2.373 5.281 5.184 5.281s5.185-2.416 5.185-5.28c0-1.016-.246-2.47-1.411-3.667-3.346-3.41-5.26-8.124-5.26-12.924s1.86-9.418 5.25-12.87c3.388-3.454 7.867-5.356 12.624-5.356s9.236 1.902 12.625 5.355 5.248 8.028 5.248 12.87c0 4.843-1.913 9.493-5.238 12.893a6.273 6.273 0 0 1-8.98 0c-2.48-2.523-2.48-6.628 0-9.15a5.37 5.37 0 0 0 1.519-3.732c0-2.864-2.373-5.28-5.185-5.28s-5.184 2.416-5.184 5.28c0 1.4.566 2.78 1.55 3.774 3.314 3.378 5.13 7.932 5.13 12.817s-1.86 9.418-5.248 12.87c-3.389 3.454-7.868 5.356-12.625 5.356z" class="cls-1" style="fill:#fff;stroke-width:1.06899;fill-opacity:1"/><path d="m63.995 46.7-10.39-9.75c-1.604-1.496-1.68-4.008-.183-5.612a3.98 3.98 0 0 1 5.613-.181l4.158 3.901 5.911-7.3a3.97 3.97 0 0 1 5.58-.589 3.97 3.97 0 0 1 .588 5.58L63.984 46.7z" class="cls-2" style="fill:#fff;stroke-width:1.06899"/><path d="M47.607 81.036c-4.757 0-9.236-1.903-12.625-5.356s-5.248-8.028-5.248-12.87c0-4.843 1.86-9.418 5.248-12.871s7.868-5.356 12.625-5.356 9.31 1.946 12.635 5.334c2.48 2.523 2.48 6.628 0 9.151a6.273 6.273 0 0 1-8.979 0 5.16 5.16 0 0 0-3.667-1.55c-2.811 0-5.184 2.416-5.184 5.28 0 2.866 2.373 5.282 5.184 5.282a5.18 5.18 0 0 0 3.667-1.55 6.273 6.273 0 0 1 8.98 0c2.48 2.522 2.48 6.627 0 9.15-3.325 3.389-7.932 5.334-12.636 5.334z" class="cls-1" style="fill:#fff;stroke-width:1.06899;fill-opacity:1"/><path d="M46.125 80.975q.736.06 1.482.06v-.021c4.704 0 9.31-1.946 12.635-5.334 2.48-2.523 2.48-6.628 0-9.15a6.27 6.27 0 0 0-8.978 0 5.19 5.19 0 0 1-3.668 1.55 5.04 5.04 0 0 1-2.9-.935z" class="cls-1" style="fill:url(#e);stroke-width:1.06899"/><path d="m98.21 61.365-16.02-3.492c1.951.765 3.376 2.714 3.376 4.936 0 1.39-.555 2.749-1.517 3.732-2.48 2.523-2.48 6.628 0 9.15a6.274 6.274 0 0 0 8.98 0c3.325-3.399 5.237-8.05 5.237-12.892q0-.722-.055-1.434" class="cls-1" style="fill:url(#f);stroke-width:1.06899;fill-opacity:1"/></svg>
